flags/au-wa.svg

<svg xmlns="http://www.w3.org/2000/svg" width="512" height="512" fill="none"><path fill="#026" d="M0 0h512v512H0z"/><path fill="#026" d="M0 0h256v256H0z"/><path fill="#EEE" d="M232 256h24v-24L152 128 256 24V0h-24L128 104 24 0H0v24l104 104L0 232v24h24l104-104z"/><path fill="#EEE" d="M256 160V96h-96V0H96v96H0v64h96v96h64v-96z"/><path fill="var(--flag-palette-bright-red, #d80027)" d="M256 144v-32H144V0h-32v112H0v32h112v112h32V144z"/><path fill="var(--flag-palette-bright-red, #d80027)" d="M0 16V0l96 96H80zm256 224v16l-96-96h16zM16 256H0l96-96v16zM240 0h16l-96 96V80z"/><path fill="var(--flag-palette-yellow, #ffda44)" d="M382 330a74 74 0 1 0 0-148 74 74 0 0 0 0 148"/><path fill="#333" d="M397 299.8c-51.4 7.8-53.2-24-53.2-24-2-22.9 21.4-29.6 28.4-42.3s-9.3-14.5-8.3-6.4-3.8 9.6-4 10.2c-.3.7-7.3 7.6-8.3 6.3s2.9-6.3 2.9-6.3-3-1.7-4.2-5.6c-3.2-8.8 13-30.7 29.9-15.9s-5.6 32-11.4 40.4-5.6 14.6-2 15.7c3.7 1.2 6.5-2.5 8-8.1 1.5-5.3 10.8-22.7 30.5-16.9 14.7 4.4 12.9 10.5 24.7 7.3 4.1 39.6-33 45.6-33 45.6"/></svg>

<svg width="512" height="512" viewBox="0 0 512 512" fill="none" xmlns="http://www.w3.org/2000/svg">
<rect width="512" height="512" fill="var(--flag-palette-navy, #002266)"/>
<rect width="256" height="256" fill="var(--flag-palette-navy, #002266)"/>
<path d="M232 256H256V232L152 128L256 24V0H232L128 104L24 0H0V24L104 128L0 232V256H24L128 152L232 256Z" fill="var(--flag-palette-white, #eeeeee)"/>
<path d="M256 160V96H160V0H96V96H0V160H96V256H160V160H256Z" fill="var(--flag-palette-white, #eeeeee)"/>
<path d="M256 144V112H144V0H112V112H0V144H112V256H144V144H256Z" fill="var(--flag-palette-bright-red, #d80027)"/>
<path d="M0 16V0L96 96H80L0 16Z" fill="var(--flag-palette-bright-red, #d80027)"/>
<path d="M256 240L256 256L160 160L176 160L256 240Z" fill="var(--flag-palette-bright-red, #d80027)"/>
<path d="M16 256L0 256L96 160L96 176L16 256Z" fill="var(--flag-palette-bright-red, #d80027)"/>
<path d="M240 -6.99382e-07L256 0L160 96L160 80L240 -6.99382e-07Z" fill="var(--flag-palette-bright-red, #d80027)"/>
<path d="M382 330C422.869 330 456 296.869 456 256C456 215.131 422.869 182 382 182C341.131 182 308 215.131 308 256C308 296.869 341.131 330 382 330Z" fill="var(--flag-palette-yellow, #ffda44)"/>
<path d="M397 299.8C345.6 307.6 343.8 275.8 343.8 275.8C341.8 252.9 365.2 246.2 372.2 233.5C379.2 220.9 362.9 219 363.9 227.1C364.9 235.3 360.1 236.7 359.9 237.3C359.6 238 352.6 244.9 351.6 243.6C350.6 242.3 354.5 237.3 354.5 237.3C354.5 237.3 351.5 235.6 350.3 231.7C347.1 222.9 363.3 201 380.2 215.8C397 230.6 374.6 247.8 368.8 256.2C363 264.5 363.2 270.8 366.8 271.9C370.5 273.1 373.3 269.4 374.8 263.8C376.3 258.5 385.6 241.1 405.3 246.9C420 251.3 418.2 257.4 430 254.2C434.1 293.8 397 299.8 397 299.8Z" fill="var(--flag-palette-black, #333333)"/>
</svg>
